X:385
T: ABEND WIRD ES WIEDER
N: F0685
O: Europa, Mitteleuropa, Deutschland
R: Geselligkeits -, Tageszeiten - Lied, Abend
M: 2/4
L: 1/8
K: Eb
 | B,B,EE | F2F2 |
GGGF | F2z2 |
CCFF | F2A2 |
GGFF | B2
EA | G2F2 | E4

@@@ Tune index: 5816
